website/media/images/svg/main-page-card-2.svg

<svg width="78" height="77" viewBox="0 0 78 77" fill="none" xmlns="http://www.w3.org/2000/svg">
<g clip-path="url(#clip0)">
<path d="M64.2801 32.4051V51.2068C55.5751 58.0895 44.7075 60.9182 34.2262 59.6904C26.9143 58.835 19.791 56.007 13.7205 51.2068V32.4051H64.2801Z" fill="#545D68"/>
<path d="M26.1174 32.4057V57.8934C21.7137 56.4341 17.5124 54.2047 13.7205 51.2074V32.4057H26.1174Z" fill="#3B454F"/>
<path d="M54.3825 58.1172C53.7428 58.1172 53.2245 57.6055 53.2245 56.974V36.1308C53.2245 35.4992 53.7428 34.987 54.3825 34.987C55.0229 34.987 55.5412 35.4992 55.5412 36.1308V56.974C55.5412 57.6055 55.0223 58.1172 54.3825 58.1172Z" fill="#3B454F"/>
<path d="M76.8414 22.4546V27.6766L39 41.9196L1.15869 27.6766V22.4546L39 8.21216L76.8414 22.4546Z" fill="#545D68"/>
<path d="M39.0001 36.6971V41.9196L1.15869 27.6766V22.4546L39.0001 36.6971Z" fill="#3B454F"/>
<path d="M61.6849 65.7442C61.6849 67.5125 60.2329 68.9459 58.4416 68.9459C56.6504 68.9459 55.1984 67.5125 55.1984 65.7442C55.1984 63.9753 56.6504 62.5419 58.4416 62.5419C60.2329 62.5419 61.6849 63.9753 61.6849 65.7442Z" fill="#009846"/>
<path d="M77.2543 21.386L52.5889 12.1029C51.9909 11.8779 51.3214 12.174 51.0935 12.7638C50.8656 13.3542 51.1655 14.0151 51.7635 14.2401L73.5898 22.4546L58.4804 28.1418L39.4779 19.6483C38.8947 19.3875 38.2085 19.643 37.9449 20.2181C37.6807 20.7938 37.9395 21.4712 38.5221 21.732L55.4305 29.2897L39 35.4734L4.41023 22.4546L39 9.43583L47.5241 12.6446C48.121 12.869 48.7911 12.5735 49.0196 11.9831C49.2475 11.3933 48.9476 10.7324 48.3495 10.5074L39.413 7.14354C39.147 7.04367 38.853 7.04309 38.587 7.14354L0.745651 21.386C0.296951 21.5552 0 21.9805 0 22.4546V27.6772C0 28.1512 0.296951 28.5766 0.745651 28.7458L12.5624 33.1928V37.1559C12.5624 37.7874 13.0807 38.2997 13.7205 38.2997C14.3608 38.2997 14.8791 37.7874 14.8791 37.1559V34.0652L38.587 42.9882C38.7203 43.0382 38.8602 43.0634 39 43.0634C39.1398 43.0634 39.2797 43.0382 39.413 42.9882L57.2836 36.2623V54.3609C51.6731 57.2683 45.3818 58.8262 39 58.8262C30.2902 58.8262 21.7471 55.9277 14.8791 50.6529V41.7305C14.8791 41.0989 14.3608 40.5867 13.7205 40.5867C13.0807 40.5867 12.5624 41.0989 12.5624 41.7305V51.2068C12.5624 51.554 12.7219 51.8824 12.9962 52.0992C20.3462 57.9121 29.5815 61.1132 39 61.1132C45.352 61.1132 51.6195 59.6551 57.2836 56.924V61.5527C55.4168 62.0561 54.0404 63.7439 54.0404 65.7442C54.0404 68.1399 56.0149 70.0897 58.4417 70.0897C60.8691 70.0897 62.8436 68.1399 62.8436 65.7442C62.8436 63.7439 61.4671 62.0561 59.6003 61.5527V55.7162C61.4886 54.6558 63.2976 53.4492 65.0044 52.0992C65.2787 51.8824 65.4388 51.554 65.4388 51.2068V33.1923L77.2543 28.7452C77.703 28.5766 78 28.1512 78 27.6766V22.4546C78 21.9805 77.703 21.5552 77.2543 21.386ZM60.5269 65.7442C60.5269 66.8786 59.5914 67.8021 58.4417 67.8021C57.2926 67.8021 56.3571 66.8786 56.3571 65.7442C56.3571 64.6092 57.2926 63.6857 58.4417 63.6857C59.5914 63.6857 60.5269 64.6092 60.5269 65.7442ZM2.3167 24.1148L37.8414 37.4854V40.2594L2.3167 26.8888V24.1148ZM40.1586 40.2594V37.4854L57.2836 31.0398V33.8144L40.1586 40.2594ZM63.1215 50.6523C61.9914 51.5205 60.8149 52.323 59.6003 53.0597V35.39L63.1215 34.0646V50.6523ZM59.6003 32.942V30.168L75.6833 24.1148V26.8888L59.6003 32.942Z" fill="black"/>
</g>
<defs>
<clipPath id="clip0">
<rect width="78" height="77" fill="white"/>
</clipPath>
</defs>
</svg>

<svg width="78" height="77" viewBox="0 0 78 77" fill="none" xmlns="http://www.w3.org/2000/svg"><g clip-path="url(#clip0)"><path d="M64.28 32.405v18.802c-8.705 6.883-19.572 9.711-30.054 8.483a40.612 40.612 0 01-20.505-8.483V32.405h50.56z" fill="#545D68"/><path d="M26.117 32.406v25.487a40.526 40.526 0 01-12.397-6.686V32.406h12.397zm28.266 25.711a1.15 1.15 0 01-1.159-1.143V36.131a1.15 1.15 0 011.159-1.144c.64 0 1.158.512 1.158 1.144v20.843a1.15 1.15 0 01-1.158 1.143z" fill="#3B454F"/><path d="M76.841 22.455v5.222L39 41.92 1.159 27.677v-5.222L39 8.212l37.841 14.243z" fill="#545D68"/><path d="M39 36.697v5.223L1.16 27.677v-5.222L39 36.697z" fill="#3B454F"/><path d="M61.685 65.744c0 1.769-1.452 3.202-3.243 3.202-1.792 0-3.244-1.433-3.244-3.202s1.452-3.202 3.244-3.202c1.79 0 3.243 1.433 3.243 3.202z" fill="#009846"/><path d="M77.254 21.386L52.59 12.103a1.163 1.163 0 00-1.495.66 1.14 1.14 0 00.67 1.477l21.826 8.215-15.11 5.687-19.002-8.494a1.164 1.164 0 00-1.533.57 1.138 1.138 0 00.577 1.514l16.909 7.558L39 35.473 4.41 22.455 39 9.435l8.524 3.21a1.165 1.165 0 001.496-.662 1.139 1.139 0 00-.67-1.476l-8.937-3.363c-.266-.1-.56-.1-.826 0L.746 21.386c-.449.17-.746.595-.746 1.069v5.222c0 .474.297.9.746 1.069l11.816 4.447v3.963c0 .631.519 1.144 1.159 1.144s1.158-.513 1.158-1.144v-3.09l23.708 8.922a1.176 1.176 0 00.826 0l17.87-6.726v18.099A39.826 39.826 0 0139 58.826c-8.71 0-17.253-2.898-24.12-8.173V41.73c0-.632-.52-1.144-1.16-1.144a1.15 1.15 0 00-1.158 1.143v9.477c0 .347.16.675.434.892 7.35 5.813 16.585 9.014 26.004 9.014a42.18 42.18 0 0018.284-4.189v4.629c-1.867.503-3.244 2.19-3.244 4.191 0 2.396 1.975 4.346 4.402 4.346s4.402-1.95 4.402-4.346c0-2-1.377-3.688-3.244-4.191v-5.837a41.325 41.325 0 005.404-3.617c.275-.217.435-.545.435-.892V33.192l11.815-4.447c.449-.168.746-.594.746-1.068v-5.222c0-.474-.297-.9-.746-1.069zM60.527 65.744c0 1.135-.936 2.058-2.085 2.058-1.15 0-2.085-.923-2.085-2.058 0-1.135.936-2.058 2.085-2.058 1.15 0 2.085.923 2.085 2.058zm-58.21-41.63L37.84 37.486v2.774L2.317 26.89v-2.774zM40.159 40.26v-2.774l17.125-6.445v2.774L40.159 40.26zM63.12 50.652a38.845 38.845 0 01-3.52 2.408V35.39l3.52-1.325v16.587zm-3.52-17.71v-2.774l16.082-6.053v2.774L59.6 32.942z" fill="#000"/></g><defs><clipPath id="clip0"><path fill="#fff" d="M0 0h78v77H0z"/></clipPath></defs></svg>
